!!!COM: Isaac, Henrich
!!!CDT: ~1450///-1517/03/26/
!!!OTL: Innsbruck, ich mu&szlig; dich lassen
!!!ONB: Also Luthern Hymn: O Welt, ich mu&szlig; dich lassen
**kern	**kern	**kern	**kern
*staff4	*staff3	*staff2	*staff1
*Ivox	*Ivox	*Ivox	*Ivox
!bassus	!tenor	!contratenor	!superius
*clefF4	*clefGv2	*clefGv2	*clefG2
*k[b-]	*k[b-]	*k[b-]	*k[b-]
*M2/2	*M2/2	*M2/2	*M2/2
*MM120	*MM120	*MM120	*MM120
=1-	=1-	=1-	=1-
1F	2r	1c	2r
.	2F/	.	2f/
=2	=2	=2	=2
4D\	4A/	4d\	4f/
4G\	4B-\	4e\	4g/
4F\	2c\	2f\	2a/
4A\	.	.	.
=3	=3	=3	=3
4A\	2A/	4c\	2cc\
8G\L	.	2f\	.
8F\J	.	.	.
2G\	2B-\	.	2b-\
.	.	4e\	.
=4	=4	=4	=4
2F\	2c\	2f\	2a/
4r	4r	4r	4r
4F\	4c\	4c\	4a/
=5	=5	=5	=5
4F\	4.c\	4A/	4.cc\
4F\	.	4A/	.
.	8d\	.	8b-\
2E-\	2e-\	2B-\	2g/
=6	=6	=6	=6
2F\	4d\	4A/	2a/
.	2c\	2A/	.
2D\	.	.	2f/
.	4Bn\	8G/L	.
.	.	8F/J	.
=7	=7	=7	=7
2C/	2c\	2G/	2e/
4r	4r	4r	4r
4D\	4A/	4d\	4f/
=8	=8	=8	=8
4GG/	4B-\	4d\	4g/
4D\	4A/	4d\	4f/
4E\	4G/	4c\	4e/
4D\	4A/	4d\	4f/
=9	=9	=9	=9
2GG/	2G/	2B-\	2g/
4r	4r	4r	4r
4G\	4G/	4d\	4g/
=10	=10	=10	=10
4D\	4A/	4d\	4f/
4G\	4B-\	4e\	4g/
4F\	2c\	2f\	2a/
4A\	.	.	.
=11	=11	=11	=11
4A\	2A/	4c\	2cc\
8G\L	.	2f\	.
8F\J	.	.	.
2G\	2B-\	.	2b-\
.	.	4e\	.
=12	=12	=12	=12
2F\	2c\	2f\	2a/
4r	4r	4r	4r
4F\	4c\	4c\	4a/
=13	=13	=13	=13
4F\	4.c\	4A/	4.cc\
4F\	.	4A/	.
.	8d\	.	8b-\
2E-\	2e-\	2B-\	2g/
=14	=14	=14	=14
2F\	4d\	4A/	2a/
.	2c\	2A/	.
2D\	.	.	2f/
.	4Bn\	8G/L	.
.	.	8F/J	.
=15	=15	=15	=15
2C/	2c\	2G/	2e/
4r	4r	4r	4r
4C/	4c\	4g\	4e/
=16	=16	=16	=16
4D\	4A/	4f\	4f/
4G\	4B-\	4e\	4g/
2F\	2c\	2f\	2a/
=17	=17	=17	=17
2BB-/	4d\	4.f\	4.b-\
.	4.B-\	.	.
.	.	8e\L	8a/L
4r	.	8d\	8g/
.	8A/L	8c\J	8f/J
4BB-/	8G/	4d\	[4g/
.	8F/J	.	.
=18	=18	=18	=18
4C/	4E/	4c\	8g/L]
.	.	.	8f/J
4D\	4F/	4B-\	2f/
4C/	4G/	4c\	.
4C/	4G/	4c\	4e/
=19	=19	=19	=19
2FF/	2F/	2c\	2f/
4r	4r	4r	4r
4C/	4c\	4g\	4e/
=20	=20	=20	=20
4D\	4A/	4f\	4f/
4G\	4B-\	4e\	4g/
2F\	2c\	2f\	2a/
=21	=21	=21	=21
2BB-/	4d\	4.f\	4.b-\
.	4.B-\	.	.
.	.	8e\L	8a/L
4r	.	8d\	8g/
.	8A/L	8c\J	8f/J
4BB-/	8G/	4d\	[4g/
.	8F/J	.	.
=22	=22	=22	=22
4C/	4E/	4c\	8g/L]
.	.	.	8f/J
4D\	4F/	4B-\	2f/
4C/	4G/	4c\	.
4C/	4G/	4c\	4e/
=23	=23	=23	=23
1FF	1F	1A	1f
==	==	==	==
*-	*-	*-	*-
!!!ENC: Craig Stuart Sapp
!!!END: 2004/12/09/
